X:191
T:Hawke's Humour. JJo8.191
%%VWML:JohnsonVol8-2184-p96-0
F:http://www.vwml.org/record/JohnsonVol8/2184/p96
Z:Transcribed by Simon Furey and Lewis Jones
Z:vmp.Simon Wilson 2013 www.village-music-project.org.uk
Z:Dance added by John Chambers 2017
M:2/4
L:1/8
%Q:1/2=90
K:A
|:\
Aece | Aece | Be dc | B/B/BB2 |\
Aece | aecA | BcdB | A/A/AA2 ::\
aecA | aecA | aecA | B/B/BB2 |
ABcd | eaga | ecdB | A/A/AA2 ::\
AEAE | CEAc | BAGF | E/E/EE2 |\
AEAE | CECF | ECDB, | A,/A,/A,A,2 :|
W: Cast off one Cu. and cross over to the
W:Bottom .| Cast up one Cu. and cross over
W:to the top ..| hunt round the 2d Cu. ..|
W:Lead thro' the Bottom and cast up .| Right
W:and Left at top ..|
W:
T:Worcester Races. JJo8.192
B:J.Johnson Choice Collection Vol 8 1758
Z:vmp.Simon Wilson 2013 www.village-music-project.org.uk
Z:Dance added by John Chambers 2017
M:C|
L:1/4
%Q:1/1=90
K:C
|:\
gcec | gcac | gcec | g2fe |\
gcec | gcac | fedc | d2G2 :|
|:\
GEcA | GEGE | GEcA | G2E>F |\
GEcA | GEGe | dfed | c2C2 :|
W: First Man turns the 3d Wo. whilst
W:his Partner turns the 2d Man. 1st Man
W:turns the 2d Wo. whilst the Wo. turns
W:the 3d Man. Set 3 and 3 Sides, the
W:same Top and Bottom and turn. Turn
W:Corners single, then Partners, the
W:same the other Corners. Lead out,
W:first on the Man's Side, then the
W:Wo's and turn it out.
W:
